svg/RightHanded/no-drop.svg

<?xml version="1.0" encoding="UTF-8" standalone="no"?>
<!-- Created with Inkscape (http://www.inkscape.org/) -->

<svg
   xmlns:dc="http://purl.org/dc/elements/1.1/"
   xmlns:cc="http://creativecommons.org/ns#"
   xmlns:rdf="http://www.w3.org/1999/02/22-rdf-syntax-ns#"
   xmlns:svg="http://www.w3.org/2000/svg"
   xmlns="http://www.w3.org/2000/svg"
   xmlns:xlink="http://www.w3.org/1999/xlink"
   version="1.0"
   width="500"
   height="500"
   viewBox="0 0 1000 1000"
   id="page"
   xml:space="preserve"><metadata
     id="metadata12"><rdf:RDF><cc:Work
         rdf:about=""><dc:format>image/svg+xml</dc:format><dc:type
           rdf:resource="http://purl.org/dc/dcmitype/StillImage" /><dc:title></dc:title></cc:Work></rdf:RDF></metadata><defs
     id="defs38"><linearGradient
       id="linearGradient1312"><stop
         id="stop1314"
         style="stop-color:#ff2222;stop-opacity:1"
         offset="0" /><stop
         id="stop1316"
         style="stop-color:#dd0000;stop-opacity:1"
         offset="1" /></linearGradient><linearGradient
       x1="525.33698"
       y1="85.616997"
       x2="525.33698"
       y2="465.60999"
       id="linearGradient2124"
       xlink:href="#linearGradient1312"
       gradientUnits="userSpaceOnUse"
       gradientTransform="translate(-102.3354,111.5472)" /><linearGradient
       x1="299.33881"
       y1="9.8939447"
       x2="299.33881"
       y2="519.69983"
       id="linearGradient5747"
       xlink:href="#linearGradient2218"
       gradientUnits="userSpaceOnUse"
       gradientTransform="translate(-102.3354,111.5471)" /><linearGradient
       id="linearGradient2218"><stop
         id="stop2220"
         style="stop-color:#999999;stop-opacity:1"
         offset="0" /><stop
         id="stop2222"
         style="stop-color:#555555;stop-opacity:1"
         offset="1" /></linearGradient><linearGradient
       x1="299.33881"
       y1="9.8939447"
       x2="299.33881"
       y2="519.69983"
       id="linearGradient4934"
       xlink:href="#linearGradient2218"
       gradientUnits="userSpaceOnUse"
       gradientTransform="translate(-102.3354,111.5471)" /><linearGradient
       x1="299.33881"
       y1="9.8939447"
       x2="299.33881"
       y2="519.69983"
       id="linearGradient5747-8"
       xlink:href="#linearGradient2218-2"
       gradientUnits="userSpaceOnUse"
       gradientTransform="translate(-102.3354,111.5471)" /><linearGradient
       id="linearGradient2218-2"><stop
         id="stop2220-6"
         style="stop-color:#999999;stop-opacity:1"
         offset="0" /><stop
         id="stop2222-4"
         style="stop-color:#555555;stop-opacity:1"
         offset="1" /></linearGradient><linearGradient
       x1="299.33881"
       y1="9.8939447"
       x2="299.33881"
       y2="519.69983"
       id="linearGradient4934-9"
       xlink:href="#linearGradient2218-2"
       gradientUnits="userSpaceOnUse"
       gradientTransform="translate(-102.33538,111.5471)" /><linearGradient
       x1="299.33881"
       y1="9.8939447"
       x2="299.33881"
       y2="519.69983"
       id="linearGradient3033"
       xlink:href="#linearGradient2218"
       gradientUnits="userSpaceOnUse"
       gradientTransform="translate(-102.3354,111.5471)" /><linearGradient
       x1="525.33698"
       y1="85.616997"
       x2="525.33698"
       y2="465.60999"
       id="linearGradient3035"
       xlink:href="#linearGradient1312"
       gradientUnits="userSpaceOnUse"
       gradientTransform="translate(-102.3354,111.5472)" /><linearGradient
       x1="299.33881"
       y1="9.8939447"
       x2="299.33881"
       y2="519.69983"
       id="linearGradient3033-7"
       xlink:href="#linearGradient2218-5"
       gradientUnits="userSpaceOnUse"
       gradientTransform="translate(-932.84357,-622.27933)" /><linearGradient
       id="linearGradient2218-5"><stop
         id="stop2220-4"
         style="stop-color:#999999;stop-opacity:1"
         offset="0" /><stop
         id="stop2222-1"
         style="stop-color:#555555;stop-opacity:1"
         offset="1" /></linearGradient><linearGradient
       x1="525.33698"
       y1="85.616997"
       x2="525.33698"
       y2="465.60999"
       id="linearGradient3035-2"
       xlink:href="#linearGradient1312-3"
       gradientUnits="userSpaceOnUse"
       gradientTransform="translate(-932.84357,-622.27923)" /><linearGradient
       id="linearGradient1312-3"><stop
         id="stop1314-7"
         style="stop-color:#ff2222;stop-opacity:1"
         offset="0" /><stop
         id="stop1316-5"
         style="stop-color:#dd0000;stop-opacity:1"
         offset="1" /></linearGradient><linearGradient
       x1="299.33881"
       y1="9.8939447"
       x2="299.33881"
       y2="519.69983"
       id="linearGradient3095"
       xlink:href="#linearGradient2218-5"
       gradientUnits="userSpaceOnUse"
       gradientTransform="matrix(0.5,0,0,0.5,-51.1677,55.77355)" /><linearGradient
       x1="525.33698"
       y1="85.616997"
       x2="525.33698"
       y2="465.60999"
       id="linearGradient3097"
       xlink:href="#linearGradient1312-3"
       gradientUnits="userSpaceOnUse"
       gradientTransform="translate(-932.84357,-622.27923)" /><linearGradient
       x1="525.33698"
       y1="85.616997"
       x2="525.33698"
       y2="465.60999"
       id="linearGradient3101"
       xlink:href="#linearGradient1312-3"
       gradientUnits="userSpaceOnUse"
       gradientTransform="translate(-102.3354,111.5472)" /><filter
       x="-0.22031549"
       y="-0.26354712"
       width="1.440631"
       height="1.5270942"
       color-interpolation-filters="sRGB"
       id="filter3872"><feGaussianBlur
         id="feGaussianBlur3874"
         stdDeviation="26.895364" /></filter><linearGradient
       x1="299.33881"
       y1="9.8939447"
       x2="299.33881"
       y2="519.69983"
       id="linearGradient3880"
       xlink:href="#linearGradient2218"
       gradientUnits="userSpaceOnUse"
       gradientTransform="translate(-102.3354,111.5471)" /></defs><path
     d="m 524.46875,432.625 c -1.11596,-0.003 -1.91753,0.15779 -2.40625,0.5 -10.4255,7.3005 4.173,183.52875 39.625,189.78125 17.7265,3.1255 51.10575,-4.70825 58.40625,5.71875 7.3005,10.427 23.99275,45.3735 41.71875,48.5 17.49565,3.0848 37.99426,-11.1184 41.53125,-28.53125 5.94622,1.2364 12.09305,1.90689 18.40625,1.90625 49.7075,0.003 90,-40.297 90,-90 0.005,-49.7105 -40.296,-90.002 -90,-90 -25.13615,-0.002 -47.85919,10.29208 -64.1875,26.90625 C 615.15994,465.82312 540.21619,432.66404 524.46875,432.625 z"
     transform="matrix(2.4,0,0,2.4,-1096.6191,-835.86499)"
     id="path1431-5"
     style="opacity:0.15;fill:#111111;fill-opacity:1;stroke:none;filter:url(#filter3872)" /><path
     d="m 213.5912,132.44617 c 20.852,-14.60101 342.028,133.42 329.526,204.326 -6.252,35.454 -43.781,92.808 -29.182,113.661 14.601,20.852 68.83,76.108 62.578,111.562 -6.251,35.453 -47.955,64.654 -83.408,58.403 -35.452,-6.253 -68.83,-76.108 -83.431,-96.962 -14.601,-20.854 -81.333,-5.201 -116.786,-11.452 -70.904,-12.505 -100.148,-364.937 -79.297,-379.538 z"
     id="path1431"
     style="opacity:0.75;fill:url(#linearGradient3880);fill-opacity:1;stroke:#000000;stroke-width:20;stroke-linecap:round;stroke-linejoin:round;stroke-miterlimit:3.13260007" /><g
     id="g3006"
     style="opacity:0.75"><path
       d="m 792.9966,387.1652 c -0.004,99.406 -80.586,179.997 -180.001,179.992 -99.411,0.007 -179.995,-80.586 -179.994,-179.995 -0.002,-99.413 80.585,-180.004 180,-179.998 99.408,-0.004 180.004,80.58 179.995,180.001 z"
       id="path1439"
       style="fill:url(#linearGradient3035);fill-opacity:1;stroke:#000000;stroke-width:20;stroke-linecap:round;stroke-linejoin:round;stroke-miterlimit:3.13260007" /><path
       d="m 613.00005,427.56246 c 4.78272,4.7806 27.23726,27.23862 34,34 27.05673,27.04475 30.46402,23.65344 47.37501,6.75 13.52796,-13.52116 20.2442,-20.33025 -6.8125,-47.37499 -6.76519,-6.7622 -24.24626,-24.188 -33.81251,-33.75 4.78432,-4.7814 27.04971,-27.0511 33.81251,-33.8125 27.05672,-27.04556 23.7218,-30.47234 6.8125,-47.37499 -13.52876,-13.52198 -20.31826,-20.23227 -47.37501,6.8125 -6.76518,6.76138 -24.24788,24.1888 -33.81251,33.74999 -4.78431,-4.7814 -27.04893,-26.9886 -33.81249,-33.74999 -14.37389,-14.3671 -22.09891,-20.14692 -28.68751,-19.875 -5.81346,0.23991 -10.76086,5.13935 -18.6875,13.0625 -13.52796,13.52115 -20.30668,20.33025 6.75,47.37499 6.68942,6.68646 23.86914,23.8109 33.5,33.4375 -4.78352,4.7806 -27.1106,26.9886 -33.875,33.74999 -27.05673,27.04474 -23.66016,30.47152 -6.75,47.37501 13.52796,13.52274 20.31826,20.29394 47.37501,-6.75001 6.76437,-6.7622 24.43378,-24.06459 34,-33.625 z"
       id="path2333"
       style="fill:#ffffff;stroke:#000000;stroke-width:20;stroke-linecap:round;stroke-linejoin:round;stroke-miterlimit:1;stroke-dasharray:none" /></g></svg>

<?xml version="1.0" encoding="UTF-8" standalone="no"?>
<!-- Created with Inkscape (http://www.inkscape.org/) -->
<svg
   xmlns:svg="http://www.w3.org/2000/svg"
   xmlns="http://www.w3.org/2000/svg"
   xmlns:xlink="http://www.w3.org/1999/xlink"
   version="1.0"
   width="500"
   height="500"
   viewBox="0 0 1000 1000"
   id="page"
   xml:space="preserve"><defs
     id="defs38"><linearGradient
       id="linearGradient1312"><stop
         id="stop1314"
         style="stop-color:#ff2222;stop-opacity:1"
         offset="0" /><stop
         id="stop1316"
         style="stop-color:#dd0000;stop-opacity:1"
         offset="1" /></linearGradient><linearGradient
       x1="525.33698"
       y1="85.616997"
       x2="525.33698"
       y2="465.60999"
       id="linearGradient2124"
       xlink:href="#linearGradient1312"
       gradientUnits="userSpaceOnUse"
       gradientTransform="translate(-102.3354,111.5472)" /></defs><path
     d="M 792.9966,387.1652 C 792.9926,486.5712 712.4106,567.1622 612.9956,567.1572 C 513.5846,567.1642 433.0006,486.5712 433.0016,387.1622 C 432.9996,287.7492 513.5866,207.1582 613.0016,207.1642 C 712.4096,207.1602 793.0056,287.7442 792.9966,387.1652 z"
     id="path1439"
     style="fill:url(#linearGradient2124);fill-opacity:1;stroke:#000000;stroke-width:20;stroke-linecap:round;stroke-linejoin:round;stroke-miterlimit:3.13260007" /><path
     d="M 613.00005,427.56246 C 617.78277,432.34306 640.23731,454.80108 647.00005,461.56246 C 674.05678,488.60721 677.46407,485.2159 694.37506,468.31246 C 707.90302,454.7913 714.61926,447.98221 687.56256,420.93747 C 680.79737,414.17527 663.3163,396.74947 653.75005,387.18747 C 658.53437,382.40607 680.79976,360.13637 687.56256,353.37497 C 714.61928,326.32941 711.28436,322.90263 694.37506,305.99998 C 680.8463,292.478 674.0568,285.76771 647.00005,312.81248 C 640.23487,319.57386 622.75217,337.00128 613.18754,346.56247 C 608.40323,341.78107 586.13861,319.57387 579.37505,312.81248 C 565.00116,298.44538 557.27614,292.66556 550.68754,292.93748 C 544.87408,293.17739 539.92668,298.07683 532.00004,305.99998 C 518.47208,319.52113 511.69336,326.33023 538.75004,353.37497 C 545.43946,360.06143 562.61918,377.18587 572.25004,386.81247 C 567.46652,391.59307 545.13944,413.80107 538.37504,420.56246 C 511.31831,447.6072 514.71488,451.03398 531.62504,467.93747 C 545.153,481.46021 551.9433,488.23141 579.00005,461.18746 C 585.76442,454.42526 603.43383,437.12287 613.00005,427.56246 z"
     id="path2333"
     style="fill:#ffffff;stroke:#000000;stroke-width:20;stroke-linecap:round;stroke-linejoin:round;stroke-miterlimit:1;stroke-dasharray:none" /></svg>
